X: 7952
T: Condon's Frolics
R: jig
M: 6/8
K: Adorian
|:eAB c2d|edc BcA|eAB c2d|~e2d eag|
eAB c2d|edc BcA|GBd gdB|ABA A3:|
|:eaa efg|dec BAG|cBc dcd|~e2d efg|
eaa efg|dec BAG|GBd gdB|ABA A3:|

